X: 725
T: Ahint Da Daeks O' Voe
R: reel
M: 4/4
K: Dmixolydian
ABAF D3A|c2cA BGBG|ABAF D3g|1 fage d3B:|2 fage d3e||
|:fdge ^cdeg|fdge fdge|fdge ^cdeg|1 fage d3e:|2 fage d4||

